X: 20
T:Amber's Jig
T:(double jig)
C:Tony Upton, 8/6/01
N:This tune was composed after a visit from a friend of mine who used to l
N:e down the street from me - she now lives in New York. (By the way, this
N:s the same friend for whom I composed "Planxty Hines.")
M:6/8
L:1/8
Q:3/8=130
K:Em
FDE A2E|F>DD D2E|FAd fdA|B>GG G2E|
FAF F/G/AF|F>DD D2E|FAd fga|fdA D2E:|
DBD d>fd|e2E D2E|F/G/AF Ade|fdA D2E|
DBD d/e/fd|e2E D2E|FAd fga|fdA D2E:|
